resources/svg/foggy-line.svg

<svg fill="currentColor" viewBox="0 0 24 24" xmlns="http://www.w3.org/2000/svg"><path d="M1.5843 13.0069C1.20753 12.0786 1 11.0635 1 10C1 5.58172 4.58172 2 9 2C12.3949 2 15.2959 4.11466 16.4576 7.09864C16.7951 7.0339 17.1436 7 17.5 7C20.5376 7 23 9.46243 23 12.5C23 12.6709 22.9922 12.8399 22.977 13.0069H20.9636C20.9876 12.8414 21 12.6721 21 12.5C21 10.567 19.433 9 17.5 9C16.5205 9 15.6351 9.40232 14.9998 10.0507C14.9999 10.0338 15 10.0169 15 10C15 6.68629 12.3137 4 9 4C5.68629 4 3 6.68629 3 10C3 11.0957 3.2937 12.1228 3.80666 13.0069H1.5843ZM4 19H21V21H4V19ZM2 15H23V17H2V15Z"/></svg>

<svg xmlns="http://www.w3.org/2000/svg" viewBox="0 0 24 24" fill="currentColor">
    <g>
        <path fill="none" d="M0 0h24v24H0z"/>
        <path d="M1.584 13.007a8 8 0 0 1 14.873-5.908 5.5 5.5 0 0 1 6.52 5.908h-2.013A3.5 3.5 0 0 0 15 10.05V10a6 6 0 1 0-11.193 3.007H1.584zM4 19h17v2H4v-2zm-2-4h21v2H2v-2z"/>
    </g>
</svg>
